Origami/64x64/apps/system-help.svg

<svg xmlns="http://www.w3.org/2000/svg" width="64" height="64" version="1">
 <path style="opacity:0.2" d="m 32,14.999495 a 16.00028,16.00028 0 0 0 -16.00028,16.00108 16.00028,16.00028 0 0 0 0.043,1.152021 A 16.00028,16.00028 0 0 1 32,16.99953 16.00028,16.00028 0 0 1 47.958279,31.84859 16.00028,16.00028 0 0 0 48.00028,31.000575 16.00028,16.00028 0 0 0 32,14.999495 Z M 4.0495109,31.926592 C 3.9033083,35.84666 4.5535197,39.86273 6.1627479,43.734798 12.110852,58.049049 28.423137,64.785167 42.737388,58.837062 53.833582,54.224982 60.341696,43.386792 59.949689,32.078594 59.553682,42.646779 53.177571,52.498952 42.737388,56.837027 28.423137,62.785132 12.110852,56.049014 6.1627479,41.734763 4.8261245,38.518707 4.1633129,35.204649 4.0495109,31.926592 Z"/>
 <path style="fill:#cccccc" d="M 32.180003,3.9980853 C 28.54394,3.979485 24.839875,4.6750972 21.261812,6.1621232 6.9475616,12.110227 0.21544378,28.418513 6.1635479,42.732763 12.111652,57.047014 28.423937,63.783132 42.738188,57.835027 57.052438,51.886923 63.784556,35.578638 57.836452,21.264387 53.374374,10.5288 43.084194,4.0538863 32.180003,3.9980853 Z M 32,15.998295 A 16.00028,16.00028 0 0 1 48.00028,31.998575 16.00028,16.00028 0 0 1 32,47.998855 16.00028,16.00028 0 0 1 15.99972,31.998575 16.00028,16.00028 0 0 1 32,15.998295 Z"/>
 <path style="fill:#e74c3c" d="M 32.180003,3.9980853 C 28.807944,3.980885 25.381884,4.5880956 22.045826,5.8613179 L 26.3079,17.049114 A 16.00028,16.00028 0 0 1 32,15.998295 16.00028,16.00028 0 0 1 37.6881,17.060714 L 41.958174,5.8535178 C 38.85612,4.6724971 35.552062,4.0152856 32.180003,3.9980853 Z M 5.8675427,22.040401 c -1.2732223,3.336058 -1.8806329,6.762118 -1.8632326,10.134177 0.0172,3.372059 0.6784119,6.680117 1.8592325,9.782172 L 17.051338,37.694675 a 16.00028,16.00028 0 0 1 -1.050818,-5.6961 16.00028,16.00028 0 0 1 1.066419,-5.692099 L 5.8675427,22.040401 Z m 52.2689143,0 -11.186195,4.262075 a 16.00028,16.00028 0 0 1 1.050018,5.696099 16.00028,16.00028 0 0 1 -1.062019,5.6881 l 11.202196,4.270075 c 1.182021,-3.102055 1.838033,-6.410113 1.856033,-9.782172 0.018,-3.372059 -0.58601,-6.798119 -1.860033,-10.134177 z M 26.3119,46.936837 22.045826,58.135033 c 3.336058,1.274022 6.762118,1.882033 10.134177,1.864032 3.372059,-0.018 6.676117,-0.674011 9.778171,-1.856032 L 37.6961,46.948837 A 16.00028,16.00028 0 0 1 32,47.998855 16.00028,16.00028 0 0 1 26.3119,46.936837 Z"/>
 <path style="opacity:0.2;fill:#ffffff" d="M 32.179688 3.9980469 C 28.543624 3.9794466 24.839782 4.6750834 21.261719 6.1621094 C 10.163525 10.77379 3.6571744 21.61363 4.0507812 32.923828 C 4.0512698 32.910757 4.0522275 32.897835 4.0527344 32.884766 C 4.0809463 21.956101 10.505214 11.63376 21.261719 7.1640625 C 24.839782 5.6770365 28.543624 4.9813997 32.179688 5 C 43.083879 5.055801 53.37386 11.530038 57.835938 22.265625 C 59.21604 25.586444 59.886383 29.011725 59.958984 32.392578 C 60.0091 28.688268 59.352668 24.913247 57.835938 21.263672 C 53.37386 10.528085 43.083879 4.0538479 32.179688 3.9980469 z M 47.958984 32.851562 A 16.00028 16.00028 0 0 1 32 47.998047 A 16.00028 16.00028 0 0 1 16.042969 33.150391 A 16.00028 16.00028 0 0 0 16 33.998047 A 16.00028 16.00028 0 0 0 16.025391 34.501953 A 16.00028 16.00028 0 0 1 16.042969 34.152344 A 16.00028 16.00028 0 0 0 32 49 A 16.00028 16.00028 0 0 0 47.958984 33.851562 A 16.00028 16.00028 0 0 1 47.982422 34.507812 A 16.00028 16.00028 0 0 0 48 33.998047 A 16.00028 16.00028 0 0 0 47.958984 32.851562 z"/>
</svg>

<svg width="64" height="64" version="1" xmlns="http://www.w3.org/2000/svg">
 <path d="m32 14.999495a16.00028 16.00028 0 0 0 -16.00028 16.00108 16.00028 16.00028 0 0 0 0.043 1.152021 16.00028 16.00028 0 0 1 15.95728 -15.153066 16.00028 16.00028 0 0 1 15.958279 14.84906 16.00028 16.00028 0 0 0 0.042001 -0.848015 16.00028 16.00028 0 0 0 -16.00028 -16.00108zm-27.950489 16.927097c-0.1462026 3.920068 0.5040088 7.936138 2.113237 11.808206 5.9481041 14.314251 22.260389 21.050369 36.57464 15.102264 11.096194-4.61208 17.604308-15.45027 17.212301-26.758468-0.396007 10.568185-6.772118 20.420358-17.212301 24.758433-14.314251 5.948105-30.626536-0.788013-36.57464-15.102264-1.3366234-3.216056-1.999435-6.530114-2.113237-9.808171z" style="opacity:.2"/>
 <path d="M 32.180003,3.9980853 C 28.54394,3.979485 24.839875,4.6750972 21.261812,6.1621232 6.9475616,12.110227 0.21544378,28.418513 6.1635479,42.732763 12.111652,57.047014 28.423937,63.783132 42.738188,57.835027 57.052438,51.886923 63.784556,35.578638 57.836452,21.264387 53.374374,10.5288 43.084194,4.0538863 32.180003,3.9980853 Z M 32,15.998295 A 16.00028,16.00028 0 0 1 48.00028,31.998575 16.00028,16.00028 0 0 1 32,47.998855 16.00028,16.00028 0 0 1 15.99972,31.998575 16.00028,16.00028 0 0 1 32,15.998295 Z" style="fill:#cccccc"/>
 <path d="m32.180003 3.9980853c-3.372059-0.0172003-6.798119 0.5900103-10.134177 1.8632326l4.262074 11.187796a16.00028 16.00028 0 0 1 5.6921 -1.050819 16.00028 16.00028 0 0 1 5.6881 1.062419l4.270074-11.207196c-3.102054-1.1810207-6.406112-1.8382322-9.778171-1.8554325zm-26.31246 18.042316c-1.2732223 3.336058-1.8806329 6.762118-1.8632326 10.134177 0.0172 3.372059 0.6784119 6.680117 1.8592325 9.782172l11.187795-4.262075a16.00028 16.00028 0 0 1 -1.050818 -5.6961 16.00028 16.00028 0 0 1 1.066419 -5.692099l-11.199396-4.266075zm52.268914 0-11.186195 4.262075a16.00028 16.00028 0 0 1 1.050018 5.696099 16.00028 16.00028 0 0 1 -1.062019 5.6881l11.202196 4.270075c1.182021-3.102055 1.838033-6.410113 1.856033-9.782172s-0.58601-6.798119-1.860033-10.134177zm-31.824557 24.896436-4.266074 11.198196c3.336058 1.274022 6.762118 1.882033 10.134177 1.864032 3.372059-0.018 6.676117-0.674011 9.778171-1.856032l-4.262074-11.194196a16.00028 16.00028 0 0 1 -5.6961 1.050018 16.00028 16.00028 0 0 1 -5.6881 -1.062018z" style="fill:#e74c3c"/>
 <path d="m32.179688 3.9980469c-3.636064-0.0186003-7.339906 0.6770365-10.917969 2.1640625-11.098194 4.6116806-17.604545 15.451521-17.210938 26.761719 4.886e-4 -0.013071 0.0014463-0.025993 0.0019532-0.039062 0.0282119-10.928665 6.4524796-21.251006 17.208985-25.720704 3.578063-1.487026 7.281905-2.1826628 10.917969-2.1640625 10.904191 0.055801 21.194172 6.530038 25.65625 17.265625 1.380102 3.320819 2.050445 6.7461 2.123046 10.126953 0.050116-3.70431-0.606316-7.479331-2.123046-11.128906-4.462078-10.735587-14.752059-17.209824-25.65625-17.265625zm15.779296 28.853515a16.00028 16.00028 0 0 1 -15.958984 15.146485 16.00028 16.00028 0 0 1 -15.957031 -14.847656 16.00028 16.00028 0 0 0 -0.042969 0.847656 16.00028 16.00028 0 0 0 0.025391 0.503906 16.00028 16.00028 0 0 1 0.017578 -0.349609 16.00028 16.00028 0 0 0 15.957031 14.847656 16.00028 16.00028 0 0 0 15.958984 -15.148438 16.00028 16.00028 0 0 1 0.023438 0.65625 16.00028 16.00028 0 0 0 0.017578 -0.509765 16.00028 16.00028 0 0 0 -0.041016 -1.146485z" style="fill:#ffffff;opacity:.2"/>
</svg>
